X:105
T:Dance, A
O:o 105 Wm Clarke MS  Feltwell, Norfolk
I:abc2nwc
M:2/4
L:1/16
K:D
A2A2 d2d2|BABd efe z|A2A2 d2d2|BAGF E2D2:|
|:(fd).d.e (fg).a.f|(ge).e.f gabg|fdde fgaf|edfe e2d2|
fdde gabg|geef gabg|abga fgef|defe e2d2:|

